code/src/components/Assets/muted.svg

<svg id="Layer_1" data-name="Layer 1" xmlns="http://www.w3.org/2000/svg" viewBox="0 0 353.6 300.05"><path d="M158.91,300.05h-25c-.57-2.66-1.1-5.1-1.74-8.07l-7.59-.94c-.34-2.67-.63-4.92-1-7.65l-7.78-1.16c-.34-2.47-.66-4.72-1-7.5L107,273.2c-.3-2.39-.62-4.88-1-7.62l-7.63-1c-.4-2.52-.79-5-1.23-7.74l-7.52-1c-.44-2.41-.89-4.89-1.41-7.69l-7.32-1-1.55-7.8-15.78-1.79-1.89-6.64L0,229.87V79.31c23.24-2.28,46.33-.4,69.91-1.4l1.93-7.55,7.62-1.14c.33-2.79.63-5.31,1-8.06l7.41-1.06c.73-4.94,1.45-9.78,2.25-15.2l7.55-1.52c.38-2.5.75-5,1.14-7.63l7.47-1c.38-2.69.74-5.19,1.13-8l7.47-.91c.41-2.51.81-5,1.29-8l7.65-.83c.37-2.65.7-4.89,1.1-7.69l7.78-1.38c.31-2.48.61-5,1-7.91h25c.22,3.71.63,7.39.63,11.06q0,141.5-.1,283C159.18,295.76,159,297.48,158.91,300.05Zm-34.33-52.67,7.73-.61c1.69-30.26.94-184.86-.91-193.72H125c-.31,2.67-.61,5.17-.94,8l-7.84.92c-.73,5.4-1.39,10.25-2.09,15.44l-7.22,1.39c-.55,3.06-1,5.55-1.44,7.89l-7.25,1c-.42,3-.77,5.51-1.1,7.85l-7.74,1.32c-.56,3-1,5.45-1.58,8.43H36.34v98c17.61.89,34.8-.77,51.69,1.21.48,2.89.84,5.11,1.23,7.48L97,213l1.57,7.8,7.16.94c.58,3,1.06,5.42,1.5,7.73l7.36,1.14c.43,2.77.81,5.26,1.17,7.6l8,1.41C124,242.06,124.24,244.08,124.58,247.38Z"/><path d="M239.84,140.62l-7.87-.91c-.28-2.51-.52-4.77-.83-7.59l-7.87-1.37c-.37-2.28-.76-4.77-1.24-7.8L214.4,122c-.33-2.68-.61-4.93-1-7.65l-7.79-1.21c-.31-2.51-.58-4.76-.92-7.49l-8-1.27c-.25-2.5-.49-5-.76-7.68l-8-1V70.09c4.09-.13,8.1-.3,12.12-.36s8.17,0,12.71,0l1.81,8.3,7.5,1.1c.34,2.57.64,4.83,1,7.57l7.94,1.24c.27,2.56.54,5.06.83,7.77l7.72.88,1.37,8,7.18.85c.49,2.33,1,4.79,1.64,7.86l7.11.91c.46,2.28,1,4.74,1.58,7.94h16.65c.3-2.36.62-4.83,1-7.45l7.64-1c.4-2.6.79-5.08,1.2-7.78l7.52-1,1.22-7.81,7.44-1c.43-2.32.9-4.8,1.46-7.84l7.57-1.08c.37-2.46.72-4.7,1.14-7.48L319,78.27c.32-2.49.64-5,1-7.93h33.32v16.3l-6.84,1.47c-.34,2.4-.71,4.91-1.14,7.92l-7.77,1.11c-.31,2.54-.58,4.79-.91,7.53l-7.78,1.38-1.13,7.24-7.67,1.58c-.31,2.14-.64,4.39-1,7.14l-7.78,1.64c-.29,2.32-.61,4.81-.94,7.49l-7.7,1.11c-.39,2.34-.81,4.82-1.31,7.81l-7.84,1v17.44l7.65,1.49c.36,2.31.75,4.8,1.22,7.83l7.68.79c.35,2.7.64,5,1,7.75l7.76,1.4,1,7.23,7.78,1.54c.32,2.37.65,4.85,1,7.57l7.66.86c.41,2.49.82,5,1.31,8l7.82.83.84,8.12,7.38,1.19v15.5c-10.74,2.68-21.72,1.58-33.26.79-.48-2.34-1-4.79-1.61-7.79l-7.52-1.3c-.33-2.36-.64-4.61-1-7.35l-7.89-1.36c-.29-2.39-.6-4.88-1-7.88l-7.94-.71c-.3-2.76-.55-5-.85-7.8l-7.72-1.32c-.34-2.31-.68-4.56-1.09-7.31l-7.8-1.51c-.29-2.39-.58-4.87-.89-7.44H258.73c-.43,2.71-.79,5-1.23,7.7L249.76,187c-.27,2.09-.57,4.34-.93,7.09l-7.8,1.66c-.31,2.3-.64,4.79-1,7.5l-7.65,1.13c-.4,2.31-.83,4.79-1.35,7.77l-7.69,1.05c-.33,2.57-.63,4.82-1,7.54l-7.77,1.32-1.07,7.62h-25.7v-25l8.08-1.49c.35-2.37.71-4.85,1.12-7.63l7.44-1c.47-2.33,1-4.8,1.55-7.65l7.14-1.11c.49-2.29,1-4.75,1.65-7.76l7.49-1c.34-2.73.62-5,1-7.74l7.94-1.19c.28-2.62.55-5.11.84-7.8l7.8-.95Z"/></svg>

<svg width="354" height="301" viewBox="0 0 354 301" fill="none" xmlns="http://www.w3.org/2000/svg">
<path d="M158.91 300.05H133.91C133.34 297.39 132.81 294.95 132.17 291.98L124.58 291.04C124.24 288.37 123.95 286.12 123.58 283.39L115.8 282.23C115.46 279.76 115.14 277.51 114.8 274.73L107 273.2C106.7 270.81 106.38 268.32 106 265.58L98.37 264.58C97.97 262.06 97.58 259.58 97.14 256.84L89.62 255.84C89.18 253.43 88.73 250.95 88.21 248.15L80.89 247.15L79.34 239.35L63.56 237.56L61.67 230.92L0 229.87V79.31C23.24 77.03 46.33 78.91 69.91 77.91L71.84 70.36L79.46 69.22C79.79 66.43 80.09 63.91 80.46 61.16L87.87 60.1C88.6 55.16 89.32 50.32 90.12 44.9L97.67 43.38C98.05 40.88 98.42 38.38 98.81 35.75L106.28 34.75C106.66 32.06 107.02 29.56 107.41 26.75L114.88 25.84C115.29 23.33 115.69 20.84 116.17 17.84L123.82 17.01C124.19 14.36 124.52 12.12 124.92 9.32003L132.7 7.94003C133.01 5.46003 133.31 2.94003 133.7 0.0300293H158.7C158.92 3.74003 159.33 7.42003 159.33 11.09C159.33 105.423 159.297 199.757 159.23 294.09C159.18 295.76 159 297.48 158.91 300.05ZM124.58 247.38L132.31 246.77C134 216.51 133.25 61.91 131.4 53.05H125C124.69 55.72 124.39 58.22 124.06 61.05L116.22 61.97C115.49 67.37 114.83 72.22 114.13 77.41L106.91 78.8C106.36 81.86 105.91 84.35 105.47 86.69L98.22 87.69C97.8 90.69 97.45 93.2 97.12 95.54L89.38 96.86C88.82 99.86 88.38 102.31 87.8 105.29H36.34V203.29C53.95 204.18 71.14 202.52 88.03 204.5C88.51 207.39 88.87 209.61 89.26 211.98L97 213L98.57 220.8L105.73 221.74C106.31 224.74 106.79 227.16 107.23 229.47L114.59 230.61C115.02 233.38 115.4 235.87 115.76 238.21L123.76 239.62C124 242.06 124.24 244.08 124.58 247.38Z" fill="white"/>
<path d="M239.84 140.62L231.97 139.71C231.69 137.2 231.45 134.94 231.14 132.12L223.27 130.75C222.9 128.47 222.51 125.98 222.03 122.95L214.4 122C214.07 119.32 213.79 117.07 213.4 114.35L205.61 113.14C205.3 110.63 205.03 108.38 204.69 105.65L196.69 104.38C196.44 101.88 196.2 99.38 195.93 96.7L187.93 95.7V70.09C192.02 69.96 196.03 69.79 200.05 69.73C204.07 69.67 208.22 69.73 212.76 69.73L214.57 78.03L222.07 79.13C222.41 81.7 222.71 83.96 223.07 86.7L231.01 87.94C231.28 90.5 231.55 93 231.84 95.71L239.56 96.59L240.93 104.59L248.11 105.44C248.6 107.77 249.11 110.23 249.75 113.3L256.86 114.21C257.32 116.49 257.86 118.95 258.44 122.15H275.09C275.39 119.79 275.71 117.32 276.09 114.7L283.73 113.7C284.13 111.1 284.52 108.62 284.93 105.92L292.45 104.92L293.67 97.11L301.11 96.11C301.54 93.79 302.01 91.31 302.57 88.27L310.14 87.19C310.51 84.73 310.86 82.49 311.28 79.71L319 78.27C319.32 75.78 319.64 73.27 320 70.34H353.32V86.64L346.48 88.11C346.14 90.51 345.77 93.02 345.34 96.03L337.57 97.14C337.26 99.68 336.99 101.93 336.66 104.67L328.88 106.05L327.75 113.29L320.08 114.87C319.77 117.01 319.44 119.26 319.08 122.01L311.3 123.65C311.01 125.97 310.69 128.46 310.36 131.14L302.66 132.25C302.27 134.59 301.85 137.07 301.35 140.06L293.51 141.06V158.5L301.16 159.99C301.52 162.3 301.91 164.79 302.38 167.82L310.06 168.61C310.41 171.31 310.7 173.61 311.06 176.36L318.82 177.76L319.82 184.99L327.6 186.53C327.92 188.9 328.25 191.38 328.6 194.1L336.26 194.96C336.67 197.45 337.08 199.96 337.57 202.96L345.39 203.79L346.23 211.91L353.61 213.1V228.6C342.87 231.28 331.89 230.18 320.35 229.39C319.87 227.05 319.35 224.6 318.74 221.6L311.22 220.3C310.89 217.94 310.58 215.69 310.22 212.95L302.33 211.59C302.04 209.2 301.73 206.71 301.33 203.71L293.39 203C293.09 200.24 292.84 198 292.54 195.2L284.82 193.88C284.48 191.57 284.14 189.32 283.73 186.57L275.93 185.06C275.64 182.67 275.35 180.19 275.04 177.62H258.73C258.3 180.33 257.94 182.62 257.5 185.32L249.76 187C249.49 189.09 249.19 191.34 248.83 194.09L241.03 195.75C240.72 198.05 240.39 200.54 240.03 203.25L232.38 204.38C231.98 206.69 231.55 209.17 231.03 212.15L223.34 213.2C223.01 215.77 222.71 218.02 222.34 220.74L214.57 222.06L213.5 229.68H187.8V204.68L195.88 203.19C196.23 200.82 196.59 198.34 197 195.56L204.44 194.56C204.91 192.23 205.44 189.76 205.99 186.91L213.13 185.8C213.62 183.51 214.13 181.05 214.78 178.04L222.27 177.04C222.61 174.31 222.89 172.04 223.27 169.3L231.21 168.11C231.49 165.49 231.76 163 232.05 160.31L239.85 159.36L239.84 140.62Z" fill="white"/>
</svg>
